X:1
T: Blue Bonnets
T: 8 x 32J3C (RSCDS Book 3)
P: All the Blue Bonnets Are Over the Border
C: From Barbara McOwen, arr. T. Traub 2-24-2004
R: Jig
M: 6/8
K: A
L: 1/8
a|:"A"AAA c2 e|a2 a a2 e|"G"=gag "D"f<af|"A"ecA "E7"B2 c|"A"AAA c2 e|"A"a2 a a2 e|"D"fed "A"cde|"Bm"f<ac "E"B2 A :|
|: "A"Ace ecA|"D"fed "A"cBA|"A"Ace "D"fga|"Bm"ABc "E"B2 A|"A"Ace ecA|"D"fed "F#m"cBA |"D"agf "A"ece|"D"f<ac "E7 (A7)"B2 A :|
|: "D"d3 "G"d3|"D"dfe dBA|"G"dBB B2A|"A"aAa f2 e|"D"d3 "G"d3|"D"dfe dBA|"G"dcB ABc|"Em"def "A"e2 d :|
"D"dfa afd|"G"agf "A"fef|"D"dfa "Bm"afd|"Em"def "A"e2 d|"D"dfa afd|"D7"agf fef|"G"dcB ABc|"Em"def "A"e2 d||
"D"dfa afd|"G"agf "A"fef|"D"dfa "Bm"afd|"Em"def "A"e2 d|"D"dfa afd|"D7"aAa f2 e|"G"dcB ABc|"Em"def "A"e2 d||
